X: 122
T:Fairey Dance. JaW.122
M:2/4
Q:1/4=100
S:James Winder Ms, Lancashire, 1835-41
R:Reel
O:England
A:Wyresdale,Lancashire
H:1/8
Z:vmp.Chris Partington, Aug 2004
K:C
e2ec|e2ec|e2ec|BGAB|e2ec|fedc|BGAB|c2c2:|!
|:g2ge|a2ag|fefd|g2ge|e3c|afdc|BAGBc2:|]
